X:1
T:Highland Laddie
R:Reel
O:Scotland
M:4/4
L:1/8
F:http://trillian.mit.edu/~jc/music/abc/march/HighlandLaddie_4G.abc 2002-09-23 13:58:07 UT
K:Em
D2 \
| "G"G3A B2B2 | cBAG B4 | "D7"B2A2 A2GA | B2A2 A2B2 \
| "G"G3A B2B2 | cBAG "B7"B3A | "Em"G2E2 E2DE | G2E2 E2 :|
|: d2 | \
| "C"e2g2 "G"d3B | cBAG B4 | "D7"B2A2 A2GA | B2A2 A3d \
| "C"e2g2 "G"d2B2 | cBAG "B7"B3A | "Em"G2E2 E2DE | G2E2 E2 :|
